X:519
T: "Gang auf die Alm"
N: Z1199
O: Europa, Mitteleuropa, Deutschland, Bayern; Tirol
N: Die letzten 8 Takte werden auf die Silbe 'la' gesungen.
R: Liebes - Lied
M: 3/4
L: 1/8
K: Bb
FE | DBFBD2 | CAFc
c2 | AcAcE2 | DB
FBd2 | DBFBdf | gfec
A2 | AcF2Ac | B4
(3FBc | d2bdbd | dcac
cd | e2cece | edbd
de | f2dfdf | fece
cd | e2ceca | b2z2

@@@ Tune index: 10277
